X:226
T:Reel 226
M:4/4
K:Ador
L:1/8
ABAG EGBG|GEAF GEDG|EAAB A2AB|cABc AGEG|GAAG E2GE|DB,GD B,A,A,2|EAAG ABcA|BedB BAA2|edce d2ed|BdBc dBGB|edcd e2ec|dBGA BAA2|edcd c2cA|GABc d2cd|edcB c2BA|GEDF EA,A,2|
